svgs/zoho_social.svg

<svg width="192" height="192" viewBox="0 0 192 192" fill="none" xmlns="http://www.w3.org/2000/svg"><path d="M68.035 48.494C75.6156 48.494 81.761 42.3522 81.761 34.776C81.761 27.1997 75.6156 21.058 68.035 21.058C60.4543 21.058 54.309 27.1997 54.309 34.776C54.309 42.3522 60.4543 48.494 68.035 48.494Z" stroke="#000" stroke-width="10" stroke-miterlimit="6" stroke-linecap="round" stroke-linejoin="round"/><path d="M130.083 82.668C143.508 82.668 154.391 71.7849 154.391 58.36C154.391 44.9351 143.508 34.052 130.083 34.052C116.658 34.052 105.775 44.9351 105.775 58.36C105.775 71.7849 116.658 82.668 130.083 82.668Z" stroke="#000" stroke-width="10" stroke-miterlimit="6" stroke-linecap="round" stroke-linejoin="round"/><path d="M143.436 170.942C158.659 170.942 171 158.601 171 143.378C171 128.155 158.659 115.814 143.436 115.814C128.213 115.814 115.872 128.155 115.872 143.378C115.872 158.601 128.213 170.942 143.436 170.942Z" stroke="#000" stroke-width="10" stroke-miterlimit="6" stroke-linecap="round" stroke-linejoin="round"/><path d="M57.673 147.427C77.9269 147.427 94.346 131.012 94.346 110.762C94.346 90.5125 77.9269 74.097 57.673 74.097C37.4191 74.097 21 90.5125 21 110.762C21 131.012 37.4191 147.427 57.673 147.427Z" stroke="#000" stroke-width="10" stroke-miterlimit="6" stroke-linecap="round" stroke-linejoin="round"/><path d="M84.5 41L104 48.5M90.5 87L107 75M95 125L114.5 132.5" stroke="#000" stroke-width="10" stroke-miterlimit="6" stroke-linecap="round"/><path d="M57.7 93.4V107.563C57.7 109.494 56.7704 111.307 55.2023 112.435L47.6 117.9M143.5 119V139.331C143.5 141.837 145.058 144.08 147.408 144.954L165 151.5" stroke="#000" stroke-width="10" stroke-miterlimit="6" stroke-linecap="round" stroke-linejoin="round"/></svg>

<svg xmlns="http://www.w3.org/2000/svg" width="192" height="192" fill="none" stroke="#000" stroke-linecap="round" stroke-linejoin="round" stroke-miterlimit="6" stroke-width="10" viewBox="0 0 192 192"><path d="M68.035 48.494c7.58 0 13.726-6.142 13.726-13.718s-6.145-13.718-13.726-13.718c-7.58 0-13.726 6.142-13.726 13.718s6.145 13.718 13.726 13.718m62.048 34.174c13.425 0 24.308-10.883 24.308-24.308s-10.883-24.308-24.308-24.308-24.308 10.883-24.308 24.308 10.883 24.308 24.308 24.308m13.353 88.274c15.223 0 27.564-12.341 27.564-27.564s-12.341-27.564-27.564-27.564-27.564 12.341-27.564 27.564 12.341 27.564 27.564 27.564m-85.763-23.515c20.254 0 36.673-16.415 36.673-36.665s-16.42-36.665-36.673-36.665C37.419 74.097 21 90.513 21 110.762c0 20.25 16.42 36.665 36.673 36.665M84.5 41l19.5 7.5M90.5 87 107 75m-12 50 19.5 7.5"/><path d="M57.7 93.4v14.163c0 1.931-.93 3.744-2.498 4.872L47.6 117.9m95.9 1.1v20.331a6 6 0 0 0 3.908 5.623L165 151.5"/></svg>
